Origami/48x48/apps/freeplane.svg

<svg width="48" height="48" version="1" xmlns="http://www.w3.org/2000/svg">
 <path d="m24 4c-11.08 0-20 8.92-20 20s8.92 20 20 20 20-8.92 20-20-8.92-20-20-20z" style="fill:#fead38"/>
 <path d="m24.310547 4.0078125a30.004341 30.022804 0 0 0 -19.253906 26.392578c1.1658904 3.471357 3.2474506 6.508414 5.9707034 8.828125a30.004341 30.022804 0 0 1 -0.027344 -1.201172 30.004341 30.022804 0 0 1 25.488281 -29.65625c-3.343495-2.6712136-7.563387-4.293353-12.177734-4.3632813z" style="fill:#3f3f3f"/>
 <path d="m38.742188 10.492188a30.004341 30.022804 0 0 0 -24.742188 29.53125 30.004341 30.022804 0 0 0 0.068359 1.33789c1.852894 1.058798 3.884813 1.840825 6.052735 2.263672a30.004341 30.022804 0 0 1 22.580078 -26.6875c-0.905097-2.40763-2.25576-4.586394-3.958984-6.445312z" style="fill:#3f3f3f"/>
 <path d="m24 4c-11.08 0-20 8.92-20 20 0 0.168-4e-3 0.333 0 0.5 0.2644-10.846 9.088-19.5 20-19.5s19.736 8.654 20 19.5c4e-3 -0.167 0-0.332 0-0.5 0-11.08-8.92-20-20-20z" fill="#fff" opacity=".2"/>
 <path d="m4.0117 24.5c-0.0041 0.167-0.0117 0.332-0.0117 0.5 0 11.08 8.92 20 20 20s20-8.92 20-20c0-0.168-8e-3 -0.333-0.012-0.5-0.264 10.846-9.076 19.5-19.988 19.5s-19.724-8.654-19.988-19.5z" opacity=".2"/>
 <circle cx="30" cy="27" r="8" style="opacity:.2"/>
 <circle cx="42" cy="21" r="6" style="opacity:.2"/>
 <circle cx="30" cy="26" r="8" style="fill:#ffffff"/>
 <circle cx="42" cy="20" r="6" style="fill:#ffffff"/>
 <circle cx="28" cy="28" r="4" style="fill:#3f3f3f"/>
 <circle cx="41" cy="21" r="3" style="fill:#3f3f3f"/>
 <path d="m36 39s-2.686292 2-6 2-6-3.790861-6-6c0 0 3.18019 2.317306 5 3 3.440694 1.290762 7 1 7 1z" style="opacity:.1"/>
 <path d="m36 38s-2.686292 2-6 2-6-3.790861-6-6c0 0 3.18019 2.317306 5 3 3.440694 1.290762 7 1 7 1z" style="fill:#3f3f3f"/>
 <g transform="translate(2.7602908e-8 .9999998)">
  <path d="m12.291631 30.023991c4.400071-2.060132 8.284608-0.913914 8.676359 2.56015s-2.857633 7.960415-7.257704 10.020548c-4.4000693 2.06013-12.303328-4.433454-12.695079-7.907517-0.39175059-3.474065 6.8763548-2.61305 11.276424-4.673181z" style="opacity:.2"/>
  <path d="m12.291631 29.023991c4.400071-2.060132 8.284608-0.913914 8.676359 2.56015s-2.857633 7.960415-7.257704 10.020548c-4.4000693 2.06013-12.303328-4.433454-12.695079-7.907517-0.39175059-3.474065 6.8763548-2.61305 11.276424-4.673181z" style="fill:#cccccc"/>
  <path d="m16.173828 28.005859c-1.183473 0.04436-2.50779 0.373787-3.882812 1.017579-4.4000692 2.06013-11.667142 1.199763-11.275391 4.673828 0.00944 0.08372 0.042537 0.17661 0.060547 0.263672 0.6928868-2.610857 7.1622152-2.040043 11.214844-3.9375 4.400071-2.060132 8.285983-0.913518 8.677734 2.560546 0.0019 0.01665 2.43e-4 0.03409 2e-3 0.05078 0.02934-0.357194 0.03649-0.709837-2e-3 -1.050782-0.269329-2.388419-2.19128-3.675718-4.794922-3.578125z" style="fill:#ffffff;opacity:.2"/>
 </g>
</svg>

<svg xmlns="http://www.w3.org/2000/svg" width="48" height="48" version="1">
 <path style="fill:#fead38" d="m24 4c-11.08 0-20 8.92-20 20s8.92 20 20 20 20-8.92 20-20-8.92-20-20-20z"/>
 <path style="fill:#3f3f3f" d="M 24.310547 4.0078125 A 30.004341 30.022804 0 0 0 5.0566406 30.400391 C 6.222531 33.871748 8.3040912 36.908805 11.027344 39.228516 A 30.004341 30.022804 0 0 1 11 38.027344 A 30.004341 30.022804 0 0 1 36.488281 8.3710938 C 33.144786 5.6998802 28.924894 4.0777408 24.310547 4.0078125 z"/>
 <path style="fill:#3f3f3f" d="M 38.742188 10.492188 A 30.004341 30.022804 0 0 0 14 40.023438 A 30.004341 30.022804 0 0 0 14.068359 41.361328 C 15.921253 42.420126 17.953172 43.202153 20.121094 43.625 A 30.004341 30.022804 0 0 1 42.701172 16.9375 C 41.796075 14.52987 40.445412 12.351106 38.742188 10.492188 z"/>
 <path fill="#fff" opacity=".2" d="m24 4c-11.08 0-20 8.92-20 20 0 0.168-0.004 0.333 0 0.5 0.2644-10.846 9.088-19.5 20-19.5s19.736 8.654 20 19.5c0.004-0.167 0-0.332 0-0.5 0-11.08-8.92-20-20-20z"/>
 <path opacity=".2" d="m4.0117 24.5c-0.0041 0.167-0.0117 0.332-0.0117 0.5 0 11.08 8.92 20 20 20s20-8.92 20-20c0-0.168-0.008-0.333-0.012-0.5-0.264 10.846-9.076 19.5-19.988 19.5s-19.724-8.654-19.988-19.5z"/>
 <circle style="opacity:0.2" cx="30" cy="27" r="8"/>
 <circle style="opacity:0.2" cx="42" cy="21" r="6"/>
 <circle style="fill:#ffffff" cx="30" cy="26" r="8"/>
 <circle style="fill:#ffffff" cx="42" cy="20" r="6"/>
 <circle style="fill:#3f3f3f" cx="28" cy="28" r="4"/>
 <circle style="fill:#3f3f3f" cx="41" cy="21" r="3"/>
 <path style="opacity:0.1" d="m 36,39 c 0,0 -2.686292,2 -6,2 -3.313708,0 -6,-3.790861 -6,-6 0,0 3.18019,2.317306 5,3 3.440694,1.290762 7,1 7,1 z"/>
 <path style="fill:#3f3f3f" d="m 36,38 c 0,0 -2.686292,2 -6,2 -3.313708,0 -6,-3.790861 -6,-6 0,0 3.18019,2.317306 5,3 3.440694,1.290762 7,1 7,1 z"/>
 <g transform="translate(2.7602908e-8,0.9999998)">
  <path style="opacity:0.2" d="m 12.291631,30.023991 c 4.400071,-2.060132 8.284608,-0.913914 8.676359,2.56015 0.391751,3.474064 -2.857633,7.960415 -7.257704,10.020548 C 9.3102167,44.664819 1.406958,38.171235 1.0152074,34.697172 0.62345681,31.223107 7.8915622,32.084122 12.291631,30.023991 Z"/>
  <path style="fill:#cccccc" d="m 12.291631,29.023991 c 4.400071,-2.060132 8.284608,-0.913914 8.676359,2.56015 0.391751,3.474064 -2.857633,7.960415 -7.257704,10.020548 C 9.3102167,43.664819 1.406958,37.171235 1.0152074,33.697172 0.62345681,30.223107 7.8915622,31.084122 12.291631,29.023991 Z"/>
  <path style="opacity:0.2;fill:#ffffff" d="m 16.173828,28.005859 c -1.183473,0.04436 -2.50779,0.373787 -3.882812,1.017579 -4.4000692,2.06013 -11.66714159,1.199763 -11.275391,4.673828 0.00944,0.08372 0.042537,0.17661 0.060547,0.263672 0.6928868,-2.610857 7.1622152,-2.040043 11.214844,-3.9375 4.400071,-2.060132 8.285983,-0.913518 8.677734,2.560546 0.0019,0.01665 2.43e-4,0.03409 0.002,0.05078 0.02934,-0.357194 0.03649,-0.709837 -0.002,-1.050782 -0.269329,-2.388419 -2.19128,-3.675718 -4.794922,-3.578125 z"/>
 </g>
</svg>
